!!!COM: Ulenberg, Caspar
!!!CDT: 1548/12/24-1617/02/16
!!!OPR: Die Psalmen Davids
!!!ONM: 27
!!!ONM-carmgen: 25
!!!OTL@@LA: Ad te Domine clamavi
!!!OTL-incipit@@DE: Herr Gott mein hort
**kern	**text
*Ivox	*
*clefC4	*
*k[]	*
*M2/1	*
*met(C|)	*
*MM180	*
=-	=-
*xywh-#154:196,363,711,365	*
1A	Herr
2A	Gott
2A	mein
=-	=-
2G	hord/
2A	mein
1F	stre-
=-	=-
1E	-cke
1D	gůt/
=-	=-
*xywh-#154:206,720,709,220	*
1r	.
1D	Ich
=-	=-
2A	růff
2A	zů
1G	dir
=-	=-
1c	mit
2B	schwe-
2B	-rem
=-	=-
1A	můt/
1r	.
=-	=-
*xywh-#154:208,929,711,222	*
1d	Ach
2c	schwei-
2B	-ge
=-	=-
1A	nit
1A	Auff
=-	=-
2G	mei-
2F	-ne
1E	bit/
=-	=-
*xywh-#154:210,1146,710,267	*
1r	.
1E	Denn
=-	=-
2G	wenn
2A	du
2B	wilt
2c	mit
=-	=-
1B	schwei-
2A	-gen
*xywh-#155:15,155,705,293	*
2c	Un-
=-	=-
2d	-gne-
2c	-dig
2B	dich
2A	er-
=-	=-
1G	-zei-
1A	-gen/
=-	=-
*xywh-#155:19,444,702,221	*
1r	.
1A	So
=-	=-
2A	würd
2G	ich
2F	gleich/
2A	Wie
=-	=-
1B-X	tod-
1G	-te
=-	=-
1F	leich/
1r	.
=-	=-
*xywh-#155:12,654,713,229	*
1F	Die
2G	hin
2F	zůr
=-	=-
2E	grů-
2D	-ben
1E	fa-
=-	=-
2F	-ren
*xywh-#155:5,879,719,228	*
2A	Nach
2G	um-
2F	-lauff
=-	=-
2E	ih-
2D	-rer
1E	ja-
=-	=-
0Dll;	-ren.
==	==
*-	*-
!!!RDF**kern: l = terminal long
!!!RDF**kern: i = editorial accidental
!!!AGN: Psalm
!!!YOR: https://mdz-nbn-resolving.de/details:bsb11116252
!!!YOO: München, Bayerische Staatsbibliothek
!!!URL-scan: https://www.digitale-sammlungen.de/de/view/bsb11116252?page=154
!!!IIIF: https://api.digitale-sammlungen.de/iiif/presentation/v2/bsb11116252/manifest
!!!EED: Wolfgang Drescher
!!!END: 2023/04/03
!!!ENC: Wolfgang Drescher
!!!EEV: 2023/04/03
!!!title: @{ONM}. @{OTL} / <i>@{OTL-incipit@@DE}</i>